X: 27
T: JIG: Bimíd ag Ól
C: C: Trad.; S: Bobby Casey & Tommy Keane
C: Set Leaders: Alexey, Anton
Z: Anton Zille ed.; gian marco at The Session
N: https://thesession.org/members/26966/sets/99621
R: Jig
M: 6/8
L: 1/8
Q: 3/8=116
K: Gmaj
|:F|DGA ~B3|cBc ~d3|DGA B2 d|cAG AGF|
DGA ~B3|cBc def|~g3 afd|cAF G2:||
|:D|GBd ~g3|gfd ~f3|GBd ~g3|gfd cAF|
GBd ~g3|gag efg|abg afd|cAF G2:||

